src/components/ProtocolIcon/starknet.svg

<svg width="17" height="16" viewBox="0 0 17 16" fill="none" xmlns="http://www.w3.org/2000/svg">
<path d="M16.4572 8C16.4572 12.4183 12.7732 16 8.22872 16C3.68421 16 0 12.4183 0 8C0 3.58168 3.68421 0 8.22872 0C12.7732 0 16.4572 3.58168 16.4572 8Z" fill="#29296E"/>
<path d="M12.0578 5.86103L11.8485 5.23255C11.806 5.10472 11.7022 5.00525 11.5703 4.96603L10.9207 4.77181C10.8308 4.74511 10.83 4.62178 10.9192 4.59366L11.5659 4.39023C11.6971 4.34888 11.7994 4.24799 11.84 4.11969L12.0396 3.48813C12.067 3.40095 12.1939 3.4 12.2228 3.48695L12.432 4.11544C12.4746 4.24303 12.5783 4.3425 12.7103 4.38196L13.3599 4.57594C13.4498 4.60288 13.4508 4.72597 13.3613 4.75409L12.7147 4.95752C12.5834 4.99887 12.4811 5.1 12.4405 5.22829L12.241 5.85962C12.2136 5.94704 12.0867 5.94798 12.0578 5.86103Z" fill="#FAFAFA"/>
<path d="M0.748291 7.87325C0.943924 7.50065 1.33081 7.21995 1.73277 7.04251C2.13886 6.86696 2.58529 6.75922 3.0237 6.72425C3.90879 6.64652 4.77103 6.79041 5.55648 7.0392C5.96111 7.1564 6.32321 7.31919 6.69722 7.48364C6.879 7.56869 7.04985 7.66509 7.22579 7.75819L7.71184 8.03203C8.24551 8.35005 8.76291 8.63169 9.24895 8.85048C9.73621 9.06738 10.1766 9.21411 10.5916 9.28901C11.0067 9.36485 11.4286 9.3639 11.9475 9.24813C12.4622 9.13496 13.0413 8.89088 13.6467 8.57782C14.2557 8.26452 14.8802 7.88034 15.5928 7.5049C15.5213 8.28957 15.2929 9.02532 14.9361 9.7358C14.5706 10.4378 14.0622 11.1225 13.321 11.677C12.5939 12.2361 11.5953 12.6257 10.5788 12.6843C9.56172 12.7511 8.59425 12.5333 7.77113 12.2056C6.94486 11.8731 6.23086 11.4363 5.59803 10.954C5.4233 10.8208 5.32949 10.7452 5.20045 10.6391L4.84005 10.3322C4.59727 10.1474 4.36202 9.92647 4.12168 9.74336C3.64219 9.35374 3.16782 8.96342 2.64775 8.62508C2.38553 8.45307 2.11505 8.29358 1.80835 8.15229C1.65598 8.08401 1.49412 8.02045 1.32036 7.97036C1.14247 7.91389 0.961664 7.88034 0.748291 7.87325Z" fill="#FF4F0A"/>
<path d="M0.748291 7.87317C0.848173 7.06583 1.23531 6.30857 1.85574 5.66401C2.47302 5.0256 3.43733 4.53344 4.50735 4.46823C5.03544 4.43397 5.57154 4.49115 6.06439 4.62393C6.55505 4.75625 7.01485 4.94905 7.4292 5.17611C7.63626 5.29023 7.82995 5.41498 8.0229 5.54091L8.53714 5.91942L9.33984 6.53515C9.86088 6.93847 10.3581 7.31155 10.8177 7.61965C11.2816 7.92823 11.6767 8.15363 12.0541 8.28571C12.4282 8.42983 12.9006 8.46669 13.5252 8.31406C13.8353 8.2446 14.1587 8.11772 14.5038 7.98021C14.847 7.83939 15.2032 7.6714 15.5928 7.50482C15.5459 7.91074 15.4611 8.31501 15.2999 8.69281C15.1451 9.07581 14.9412 9.45054 14.6562 9.79999C14.5104 9.9701 14.3541 10.1412 14.1718 10.299C13.9896 10.453 13.7876 10.5993 13.5645 10.7276C13.1196 10.9783 12.5917 11.1614 12.0503 11.2266C11.5088 11.2928 10.9652 11.2597 10.4701 11.1576C9.97242 11.0584 9.51895 10.8984 9.10265 10.7137C8.27297 10.3385 7.5789 9.86685 6.96527 9.36761C6.65712 9.11834 6.36817 8.85796 6.09453 8.59357L5.77131 8.27815C5.67386 8.18671 5.57543 8.0948 5.47798 8.01068C5.08526 7.67305 4.72072 7.41504 4.31925 7.25414C3.9207 7.08567 3.41059 7.01644 2.78481 7.13033C2.16146 7.24303 1.4776 7.50506 0.748291 7.87317Z" fill="#FAFAFA"/>
<path d="M4.03692 12.0365C4.03692 12.2754 3.83764 12.4691 3.59195 12.4691C3.34625 12.4691 3.14722 12.2754 3.14722 12.0365C3.14722 11.7976 3.34625 11.6039 3.59195 11.6039C3.83764 11.6039 4.03692 11.7976 4.03692 12.0365Z" fill="#FAFAFA"/>
<path d="M4.03692 12.0365C4.03692 12.2754 3.83764 12.4691 3.59195 12.4691C3.34625 12.4691 3.14722 12.2754 3.14722 12.0365C3.14722 11.7976 3.34625 11.6039 3.59195 11.6039C3.83764 11.6039 4.03692 11.7976 4.03692 12.0365Z" fill="#FAFAFA"/>
</svg>

<svg xmlns="http://www.w3.org/2000/svg" width="17" height="16" fill="none"><path fill="#29296E" d="M16.457 8c0 4.418-3.684 8-8.228 8C3.684 16 0 12.418 0 8s3.684-8 8.229-8 8.228 3.582 8.228 8"/><path fill="#FAFAFA" d="m12.058 5.861-.21-.628a.42.42 0 0 0-.278-.267l-.65-.194a.093.093 0 0 1 0-.178l.646-.204a.42.42 0 0 0 .274-.27l.2-.632c.027-.087.154-.088.183-.001l.209.628a.42.42 0 0 0 .278.267l.65.194c.09.027.09.15.001.178l-.646.204a.42.42 0 0 0-.274.27l-.2.632c-.027.087-.154.088-.183.001"/><path fill="#FF4F0A" d="M.748 7.873c.196-.372.583-.653.985-.83a4.1 4.1 0 0 1 1.29-.319c.886-.077 1.748.066 2.533.315.405.117.767.28 1.141.445.182.085.353.181.529.274l.486.274c.534.318 1.05.6 1.537.818s.928.364 1.343.439a3.3 3.3 0 0 0 1.355-.04c.515-.114 1.094-.358 1.7-.671.609-.313 1.233-.698 1.946-1.073-.072.785-.3 1.52-.657 2.23-.365.703-.874 1.388-1.615 1.942a5.1 5.1 0 0 1-2.742 1.007c-1.017.067-1.985-.15-2.808-.478a9.3 9.3 0 0 1-2.173-1.252 12 12 0 0 1-.398-.315l-.36-.307c-.243-.185-.478-.406-.718-.589-.48-.39-.954-.78-1.474-1.118a6.4 6.4 0 0 0-.84-.473 4 4 0 0 0-.488-.182 2 2 0 0 0-.572-.097"/><path fill="#FAFAFA" d="M.748 7.873c.1-.807.487-1.564 1.108-2.209.617-.638 1.581-1.13 2.651-1.196a4.8 4.8 0 0 1 1.557.156c.491.132.95.325 1.365.552.207.114.4.239.594.365l.514.378.803.616c.52.403 1.018.777 1.478 1.085.464.308.859.534 1.236.666.374.144.847.18 1.471.028.31-.07.634-.196.979-.334.343-.14.7-.309 1.089-.475-.047.406-.132.81-.293 1.188a4.3 4.3 0 0 1-.644 1.107c-.146.17-.302.341-.484.499-.182.154-.384.3-.607.429-.445.25-.973.433-1.515.499a5 5 0 0 1-1.58-.07c-.498-.099-.951-.259-1.367-.443a9.7 9.7 0 0 1-2.138-1.346q-.461-.376-.87-.774l-.324-.316a10 10 0 0 0-.293-.267c-.393-.338-.757-.596-1.159-.757-.398-.168-.908-.238-1.534-.124-.624.113-1.307.375-2.037.743M4.037 12.037c0 .238-.2.432-.445.432a.44.44 0 0 1-.445-.432c0-.24.2-.433.445-.433.246 0 .445.194.445.433"/><path fill="#FAFAFA" d="M4.037 12.037c0 .238-.2.432-.445.432a.44.44 0 0 1-.445-.432c0-.24.2-.433.445-.433.246 0 .445.194.445.433"/></svg>
